X: 5981
T: Cân Crwtyn Y Gwartheg
R: reel
M: 4/4
K: Eminor
E|AAA cBBB2|c2AA BGE E|AAAc BBBd|cABG A2A2|
ecce dBB2|c2 AA BGE2|BBB A/G/ AAAc|BGFD E2E2||
|:EEE F/G/ FFFG/A/|GEE E/D/ EEE2|GGG A/B/ AAA B/c/|BGFD E2E2:|

